packages/core/assets/Icons/power_plug.svg

<svg viewBox="0 0 20 20" fill="none" xmlns="http://www.w3.org/2000/svg">
<path d="M15.8333 12.5C15.5972 12.5 15.3993 12.4201 15.2396 12.2604C15.0799 12.1007 15 11.9028 15 11.6666C15 11.4305 15.0799 11.2326 15.2396 11.0729C15.3993 10.9132 15.5972 10.8333 15.8333 10.8333H16.6667C16.9028 10.8333 17.1007 10.9132 17.2604 11.0729C17.4201 11.2326 17.5 11.4305 17.5 11.6666C17.5 11.9028 17.4201 12.1007 17.2604 12.2604C17.1007 12.4201 16.9028 12.5 16.6667 12.5H15.8333ZM15.8333 15.8333C15.5972 15.8333 15.3993 15.7535 15.2396 15.5937C15.0799 15.434 15 15.2361 15 15C15 14.7639 15.0799 14.566 15.2396 14.4062C15.3993 14.2465 15.5972 14.1666 15.8333 14.1666H16.6667C16.9028 14.1666 17.1007 14.2465 17.2604 14.4062C17.4201 14.566 17.5 14.7639 17.5 15C17.5 15.2361 17.4201 15.434 17.2604 15.5937C17.1007 15.7535 16.9028 15.8333 16.6667 15.8333H15.8333ZM11.6667 16.6666C11.2083 16.6666 10.816 16.5035 10.4896 16.1771C10.1632 15.8507 10 15.4583 10 15H9.16667C8.93056 15 8.73264 14.9201 8.57292 14.7604C8.41319 14.6007 8.33333 14.4028 8.33333 14.1666V12.5C8.33333 12.2639 8.41319 12.066 8.57292 11.9062C8.73264 11.7465 8.93056 11.6666 9.16667 11.6666H10C10 11.2083 10.1632 10.816 10.4896 10.4896C10.816 10.1632 11.2083 9.99998 11.6667 9.99998H13.3333C13.5694 9.99998 13.7674 10.0798 13.9271 10.2396C14.0868 10.3993 14.1667 10.5972 14.1667 10.8333V15.8333C14.1667 16.0694 14.0868 16.2673 13.9271 16.4271C13.7674 16.5868 13.5694 16.6666 13.3333 16.6666H11.6667ZM5.83333 14.1666C4.91667 14.1666 4.13194 13.8403 3.47917 13.1875C2.82639 12.5347 2.5 11.75 2.5 10.8333C2.5 9.91665 2.82639 9.13192 3.47917 8.47915C4.13194 7.82637 4.91667 7.49998 5.83333 7.49998H7.08333C7.43056 7.49998 7.72569 7.37845 7.96875 7.1354C8.21181 6.89234 8.33333 6.5972 8.33333 6.24998C8.33333 5.90276 8.21181 5.60762 7.96875 5.36456C7.72569 5.12151 7.43056 4.99998 7.08333 4.99998H4.16667C3.93056 4.99998 3.73264 4.92012 3.57292 4.7604C3.41319 4.60067 3.33333 4.40276 3.33333 4.16665C3.33333 3.93054 3.41319 3.73262 3.57292 3.5729C3.73264 3.41317 3.93056 3.33331 4.16667 3.33331H7.08333C7.88889 3.33331 8.57639 3.61804 9.14583 4.18748C9.71528 4.75692 10 5.44442 10 6.24998C10 7.05554 9.71528 7.74304 9.14583 8.31248C8.57639 8.88192 7.88889 9.16665 7.08333 9.16665H5.83333C5.375 9.16665 4.98264 9.32984 4.65625 9.65623C4.32986 9.98262 4.16667 10.375 4.16667 10.8333C4.16667 11.2916 4.32986 11.684 4.65625 12.0104C4.98264 12.3368 5.375 12.5 5.83333 12.5H6.66667C6.90278 12.5 7.10069 12.5798 7.26042 12.7396C7.42014 12.8993 7.5 13.0972 7.5 13.3333C7.5 13.5694 7.42014 13.7673 7.26042 13.9271C7.10069 14.0868 6.90278 14.1666 6.66667 14.1666H5.83333Z" fill="currentColor"/>
</svg>

<svg xmlns="http://www.w3.org/2000/svg" width="20" height="20" fill="none" viewBox="0 0 20 20">
  <path fill="#201F1F" d="M15.833 12.5a.806.806 0 0 1-.593-.24.806.806 0 0 1-.24-.593c0-.236.08-.434.24-.594.16-.16.357-.24.593-.24h.834c.236 0 .434.08.593.24.16.16.24.357.24.594 0 .236-.08.434-.24.593a.806.806 0 0 1-.593.24h-.834Zm0 3.333a.806.806 0 0 1-.593-.24A.806.806 0 0 1 15 15c0-.236.08-.434.24-.594.16-.16.357-.24.593-.24h.834c.236 0 .434.08.593.24.16.16.24.358.24.594s-.08.434-.24.594a.806.806 0 0 1-.593.24h-.834Zm-4.166.834c-.459 0-.851-.164-1.177-.49A1.605 1.605 0 0 1 10 15h-.833a.806.806 0 0 1-.594-.24.806.806 0 0 1-.24-.593V12.5c0-.236.08-.434.24-.594.16-.16.358-.24.594-.24H10c0-.458.163-.85.49-1.176.326-.327.718-.49 1.177-.49h1.666c.236 0 .434.08.594.24.16.16.24.357.24.593v5c0 .236-.08.434-.24.594a.806.806 0 0 1-.594.24h-1.666Zm-5.834-2.5a3.21 3.21 0 0 1-2.354-.98 3.21 3.21 0 0 1-.979-2.354c0-.916.326-1.701.98-2.354A3.21 3.21 0 0 1 5.832 7.5h1.25c.348 0 .643-.122.886-.365s.364-.538.364-.885-.121-.642-.364-.885A1.205 1.205 0 0 0 7.083 5H4.167a.806.806 0 0 1-.594-.24.806.806 0 0 1-.24-.593c0-.236.08-.434.24-.594.16-.16.358-.24.594-.24h2.916a2.81 2.81 0 0 1 2.063.854c.57.57.854 1.257.854 2.063a2.81 2.81 0 0 1-.854 2.062 2.81 2.81 0 0 1-2.063.855h-1.25c-.458 0-.85.163-1.177.49-.326.326-.49.718-.49 1.176 0 .459.164.851.49 1.177.327.327.719.49 1.177.49h.834c.236 0 .434.08.593.24.16.16.24.357.24.593s-.08.434-.24.594a.806.806 0 0 1-.593.24h-.834Z"/>
</svg>
